X:1
T:Propior Deo, 64.64.664
T:Propior Deo, 64.64.664
T:Arthur Seymour Sullivan, 1872
T:Public Domain Courtesy of the Cyber Hymnal™
C:Arthur Seymour Sullivan, 1872
Z:Public Domain
Z:Courtesy of the Cyber Hymnal™
%%score ( 1 2 ) ( 3 4 )
L:1/8
Q:1/4=113
M:4/4
K:G
V:1 treble 
V:2 treble 
V:3 bass 
V:4 bass 
V:1
 [DB]4 [DA]2 [DB]2 | [DG]2 [B,D]2 [CE]4 | [CD]4 [CF]2 [CA]2 | [B,B]8 | [DB]4 [DA]2 [DB]2 | %5
 [DG]2 [B,D]2 [CE]2 [EG]2 | D4 (F2 A2) | [DG]8 | [Gc]4 [Gc]2 [Gd]2 | [Ge]2 [=Fd]2 (c2 B2) | %10
 [EA]4 [EB]2 E2 | [Ec]2 [EB]2 [FA]4 | [GB]4 [GA]2 [GB]2 | [DG]4 [CE]4 | [CD]4 [DF]2 [FA]2 | G8 |] %16
V:2
 x8 | x8 | x8 | x8 | x8 | x8 | D4 D4 | x8 | x8 | x4 E4 | x6 E2 | x8 | x8 | x8 | x8 | G8 |] %16
V:3
 [G,D]4 [G,C]2 [G,D]2 | [G,B,]2 G,2 [C,G,]4 | [D,F,]4 [D,A,]2 [D,F,]2 | [G,,G,]8 | %4
 [G,D]4 [G,C]2 [G,D]2 | [G,B,]2 G,2 [C,G,]2 [C,G,]2 | [D,F,]4 [D,C]4 | [G,B,]8 | %8
 [C,E]4 [E,C]2 [G,B,]2 | C3 [C,C] [C,C]4 | [E,C]4 [E,^G,]2 [E,G,]2 | [A,,A,]2 [A,,B,]2 [D,C]4 | %12
 [G,B,]4 [G,C]2 [G,D]2 | [G,B,]4 [C,G,]4 | [D,F,]4 [D,C]2 [D,C]2 | [G,,B,]8 |] %16
V:4
 x8 | x2 G,2 x4 | x8 | x8 | x8 | x2 G,2 x4 | x8 | x8 | x8 | C3 x5 | x8 | x8 | x8 | x8 | x8 | x8 |] %16

